X: 1
T: String Quartet in C Major opus 20 no 2 mvt 4
C: Franz Joseph Haydn
%%abc-version 2.0
%%abcx-abcm2ps-target-version 5.9.1 (29 Sep 2008)
%%abc-creator hum2abc beta
%%abcx-conversion-date 2021/02/14 14:38:27
%%abc-copyright Copyright (c) 1994, 2000 Center for Computer Assisted Research in the Humanities
%%abc-edited-by Frances Bennion
%%abcx-initial-encoding-date 1997/04/15
%%gracespace 0 6 6
%%humdrum-veritas 2132812598
%%humdrum-veritas-data 3227189691
%%linebreak <none>
%%barnumbers 0
L: 1/8
M: 6/8
N: Derived from op20n2-04.krn
Q: "Fuga a quattro soggeti: Allegro"
%%staves [1 2 3 4]
V: 1
V: 2
V: 3 clef=alto
V: 4 clef=bass
K: C
[V:1]zGG g^f=f [I:setbarnb2]|
[V:2]z6 |
[V:3]z6 |
[V:4]z6 |
[V:1]ecB A2d |
[V:2]z6 |
[V:3]z4 FF- |
[V:4]z6 |
[V:1]G2c Fff |
[V:2]z6 |
[V:3]FG/F/E2 DC |
[V:4]z6 |
[V:1]fg/f/e/d/ eE/F/E/D/ |
[V:2]z4 CC |
[V:3]B,3 C3 |
[V:4]z6 |
[V:1]C2z4 |
[V:2]cB_B AGF |
[V:3]C,D,E, F,A,B, |
[V:4]z6 |
[V:1]zcc2 d/c/B- |
[V:2]E2A D2G |
[V:3]CA,G, ^F,2G, |
[V:4]z6 |
[V:1]BAG ^F3 |
[V:2]Ccc cd/c/B/A/ |
[V:3]E3 D3 |
[V:4]z6 |
[V:1]G2z GAB |
[V:2]BB,/C/B,/A,/ G,2z |
[V:3]zG,G, G^F=F |
[V:4]z6 |
[V:1]cde fdc |
[V:2]z4 FF- |
[V:3]ECB, A,2D |
[V:4]z6 |
[V:1]B2c A3 |
[V:2]FG/F/E2 DC |
[V:3]G,2C F,FF |
[V:4]z6 |
[V:1]G2z4 |
[V:2]B,2>C2 z2 |
[V:3]FG/F/E/D/ EE,/F,/E,/D,/ |
[V:4]z4 C,C, |
[V:1]E/C/F/C/G/C/ A2z |
[V:2]CDE FAB |
[V:3]C,2z4 |
[V:4]CB,_B, A,G,F, |
[V:1]z4 A,B, |
[V:2]cAG ^F2G |
[V:3]zcc2 d/c/B- |
[V:4]E,2A, D,2G, |
[V:1]C^FG A2z |
[V:2]e3 d3- |
[V:3]BAG ^F3 |
[V:4]C,CC CD/C/B,/A,/ |
[V:1]zGG g^f=f |
[V:2]d2z B,/G,/C/G,/D/G,/ |
[V:3]G2z G,A,B, |
[V:4]B,2z4 |
[V:1]ecB A2d |
[V:2]E2z4 |
[V:3]CDE FDC |
[V:4]z4 F,F,- |
[V:1]G2c Fff |
[V:2]zDE FBc |
[V:3]B,2C A,3 |
[V:4]F,G,/F,/E,2 D,C, |
[V:1]fg/f/e/d/ egc'- |
[V:2]d2>c2 ee |
[V:3]G,4- G,E |
[V:4]B,,3 C,2z |
[V:1]c'2<b2 a2- |
[V:2]d3 c3 |
[V:3]FG/F/E/D/ EFC |
[V:4]z6 |
[V:1]a2<g2 f2- |
[V:2]B3 A3 |
[V:3]DE/D/C/B,/ CDA, |
[V:4]z6 |
[V:1]fee d3 |
[V:2]G2>A2 G2- |
[V:3]B,Cc2 B2- |
[V:4]z2E, F,G,/F,/E,/D,/ |
[V:1]c3 B3 |
[V:2]G2<F2 EE |
[V:3]B2<A2 ^GG |
[V:4]E,F,C, D,E,/D,/C,/B,,/ |
[V:1]A2z4 |
[V:2]e^d=d cAG |
[V:3]E^F^G A2z |
[V:4]C,B,,E, A,,2z |
[V:1]z6 |
[V:2]F2B E2A |
[V:3]zDD2 E/D/C- |
[V:4]z6 |
[V:1]z6 |
[V:2]Ddd de/d/c/B/ |
[V:3]CB,A, ^G,3 |
[V:4]z4 E,,E,, |
[V:1]z6 |
[V:2]cBE A3- |
[V:3]A,^G,z2 E,E, |
[V:4]E,^D,=D, C,A,,G,, |
[V:1]z6 |
[V:2]AAA ^G2A |
[V:3]E^D=D D2C |
[V:4]F,,2B,, E,,2A,, |
[V:1]z6 |
[V:2]F3 E3- |
[V:3]CB,A, ^G,3 |
[V:4]D,,D,D, D,E,/D,/C,/B,,/ |
[V:1]Aa/g/f/e/ f3- |
[V:2]EA,A Ad/c/B/A/ |
[V:3]A,2z4 |
[V:4]C,2^C, D,3 |
[V:1]fg/f/e/d/ edz |
[V:2]B2c cBG |
[V:3]zG,G, G^F=F |
[V:4]G,,2z4 |
[V:1]zGG g^f=f |
[V:2]c2G A2B |
[V:3]E3 D2G, |
[V:4]z6 |
[V:1]e2z cde |
[V:2]c2z4 |
[V:3]CEE EFG |
[V:4]zC,C, CB,_B, |
[V:1]f2z4 |
[V:2]zcc c'b_b |
[V:3]A2F D2E |
[V:4]A,3 G,2C, |
[V:1]zFF fe_e |
[V:2]a2z3 A |
[V:3]F2z4 |
[V:4]F,2z4 |
[V:1]d2^f gf=f |
[V:2]_BA_A G2=B |
[V:3]z6 |
[V:4]z6 |
[V:1]e2^g ag=g |
[V:2]cB_B A2e |
[V:3]z4 z^C |
[V:4]z4 zA, |
[V:1]f2z4 |
[V:2]d2^F GF=F |
[V:3]D^C=C B,2^D |
[V:4]_B,A,_A, G,2=B, |
[V:1]z6 |
[V:2]E2^G AG=G |
[V:3]E^D=D ^C2E |
[V:4]CB,_B, A,2^C |
[V:1]z6 |
[V:2]FA_B2 ^GA- |
[V:3]F3 E3 |
[V:4]D3 C3 |
[V:1]z6 |
[V:2]AdG2 EF- |
[V:3]D3 C3 |
[V:4]_B,3 A,3 |
[V:1]zAA a^g=g |
[V:2]FED ^C3 |
[V:3]_B,2A, G,3 |
[V:4]G,2F, E,3 |
[V:1]f2d ^c/A/d/A/e/A/ |
[V:2]DAA a^g=g |
[V:3]A,DF E2z |
[V:4]D,2z A,B,^C |
[V:1]f2z4 |
[V:2]fdc _B2e |
[V:3]z4 G,G,- |
[V:4]DEF GED |
[V:1]zEF G^cd |
[V:2]A2d Ggg |
[V:3]G,A,/G,/F,2 E,D, |
[V:4]^C2D _B,3 |
[V:1]e3 f3 |
[V:2]ga/g/f/e/ fF/G/F/E/ |
[V:3]^C,2^C DAA |
[V:4]A,2z2 D,D, |
[V:1]^f2>g2 a_b |
[V:2]Ddd d3- |
[V:3]A2>_B2 cd |
[V:4]D^C=C _B,A,G, |
[V:1]ad'd'2 a/_b/c'- |
[V:2]d2g g3 |
[V:3]A2D G2C |
[V:4]F,2_B, E,2A, |
[V:1]c'_b/a/b2 a/g/a |
[V:2]f3 e2f |
[V:3]F2z2 C,C, |
[V:4]D,2G, C,3- |
[V:1]g2z4 |
[V:2]eCC cB_B |
[V:3]CB,_B, A,G,E, |
[V:4]C,6 |
[V:1]zFF fe_e |
[V:2]AFF d^c=c |
[V:3]F,2z4 |
[V:4]F,,2z4 |
[V:1]d2z4 |
[V:2]_B2z4 |
[V:3]zD,D, D^C=C |
[V:4]z_B,,B,, _B,A,_A, |
[V:1]zGG g^f=f |
[V:2]zEE e^d=d |
[V:3]B,2z4 |
[V:4]G,2z4 |
[V:1]e2z4 |
[V:2]c2z4 |
[V:3]zE,E, E^D=D |
[V:4]zC,,C,, C,B,,_B,, |
[V:1]zAA a^g=g |
[V:2]zFF fe_e |
[V:3]^C2z4 |
[V:4]A,,2z4 |
[V:1]feg fd^G |
[V:2]d^ce d_BD |
[V:3]z6 |
[V:4]z6 |
[V:1]A2z4 |
[V:2]^C2z AB^c |
[V:3]z3 ^C/A,/D/A,/E/A,/ |
[V:4]zA,,A,, A,^G,=G, |
[V:1]zdd d'^c'=c' |
[V:2]d2z4 |
[V:3]^F2z D,E,^F, |
[V:4]^F,2z F,/D,/G,/D,/A,/D,/ |
[V:1]b2z B/G/c/G/d/G/ |
[V:2]zGG g^f=f |
[V:3]G,2z4 |
[V:4]B,2z G,A,B, |
[V:1]ecc c'b_b |
[V:2]e2z e/c/f/c/g/c/ |
[V:3]CDE F3- |
[V:4]C2z4 |
[V:1]a2z4 |
[V:2]a3 g3 |
[V:3]F4 Ee- |
[V:4]zDC B,CB, |
[V:1]z6 |
[V:2]f3 e3 |
[V:3]ed/^c/d2 =cc- |
[V:4]A,B,A, ^G,A,=G, |
[V:1]z6 |
[V:2]d3 c3 |
[V:3]cB/A/B2 AA- |
[V:4]^F,G,F, E,F,E, |
[V:1]z6 |
[V:2]B4 A/^G/A- |
[V:3]AG^F E3 |
[V:4]^D,E,=D, C,3 |
[V:1]zBB b^a=a |
[V:2]AG/^F/G F2z |
[V:3]^D2E D/B,/E/B,/^F/B,/ |
[V:4]B,,4 ^C,^D, |
[V:1]ged c2^f |
[V:2]z4 AA- |
[V:3]G2z2 ^FE |
[V:4]E,^F,G, A,2z |
[V:1]B2e Aaa |
[V:2]AB/A/G2 ^FE |
[V:3]^D2E C3 |
[V:4]z6 |
[V:1]ab/a/g/^f/ gG/A/G/^F/ |
[V:2]^D3 E2z |
[V:3]B,3 E3 |
[V:4]z4 E,E, |
[V:1]E^F^G ABc |
[V:2]z6 |
[V:3]E6- |
[V:4]E^D=D CB,A, |
[V:1]B3 A3 |
[V:2]zee2 d/^c/d- |
[V:3]E2z4 |
[V:4]G,2C ^F,2B, |
[V:1]G3 ^F2G |
[V:2]dc/B/c2 B/A/B |
[V:3]z4 DD |
[V:4]E,2A, D,3 |
[V:1]^F/D/G/D/A/D/ B2z |
[V:2]A2z4 |
[V:3]d^c=c BG^F |
[V:4]D,E,^F, G,A,B, |
[V:1]z4 dd |
[V:2]zCC2 D/C/B, |
[V:3]E2A D^FG |
[V:4]C2z4 |
[V:1]d'^c'=c' bg^f |
[V:2]A,E^F G2z |
[V:3]EA,D G,A,B, |
[V:4]z6 |
[V:1]e2a d2g |
[V:2]z4 AB |
[V:3]CAG ^F2G |
[V:4]zCC2 D/C/B,- |
[V:1]cc'c' c'd'/c'/b/a/ |
[V:2]c^fg a2d |
[V:3]E3 D3- |
[V:4]B,A,G, ^F,3 |
[V:1]b2e' a2d' |
[V:2]dgg2 ^f/e/f |
[V:3]D2z4 |
[V:4]G,2z4 |
[V:1]g2c' ^f2b |
[V:2]e2a d2g |
[V:3]zcc2 d/c/B- |
[V:4]z6 |
[V:1]e2a d3 |
[V:2]ccc2 d/c/B- |
[V:3]BAG ^F2G- |
[V:4]z3 D2G |
[V:1]e2A d2g |
[V:2]Bc/B/A2 B/A/G- |
[V:3]GA/G/^F2 G/F/E- |
[V:4]C2^F B,2E |
[V:1]c2f B2c |
[V:2]GA/G/F2 G/F/E |
[V:3]EF/E/D2 E/D/E/F/ |
[V:4]A,2D G,2C |
[V:1]BB,B, B,CD |
[V:2]GG,G, G,A,B, |
[V:3]G2z4 |
[V:4]G,G,,G,, G,^F,=F, |
[V:1]E2z4 |
[V:2]C2G, A,2B, |
[V:3]zG,G, G^F=F |
[V:4]E,3 D,2G, |
[V:1]zCC cB_B |
[V:2]C2z CDE |
[V:3]E2z4 |
[V:4]C,2z4 |
[V:1]Ad^c =cBe |
[V:2]FDE ^FG^G |
[V:3]z4 zE |
[V:4]z6 |
[V:1]^d=dc fe_e |
[V:2]ABc A_Bc |
[V:3]^F^GA =F=GA |
[V:4]z6 |
[V:1]dg^f =fea |
[V:2]dBc de^c |
[V:3]_Bdd G2e- |
[V:4]zG,A, B,CA, |
[V:1]^g=gf _b3- |
[V:2]def d3 |
[V:3]eAA G3- |
[V:4]B,^CD _B,G,F, |
[V:1]ba^g a3- |
[V:2]c4 dA |
[V:3]GEE F3 |
[V:4]E,2z4 |
[V:1]a_b^f g3- |
[V:2]_B4 cG |
[V:3]D3 E3 |
[V:4]z6 |
[V:1]gae f3- |
[V:2]A4 _BA |
[V:3]^C3 D3 |
[V:4]z6 |
[V:1]fed e3 |
[V:2]G6 |
[V:3]_B,2>G,2 CC |
[V:4]zC,,C,, C,B,,_B,, |
[V:1]fcc c'b_b |
[V:2]F2z CDE |
[V:3]C2z4 |
[V:4]A,,2z E,,/C,,/F,,/C,,/G,,/C,,/ |
[V:1]afe d2g |
[V:2]FGA _BGF |
[V:3]z4 _B,B,- |
[V:4]A,,2z4 |
[V:1]c2f _B_bb |
[V:2]E2F D3 |
[V:3]B,C/_B,/A,2 G,F, |
[V:4]zG,A, _B,EF |
[V:1]_bc'/b/a/g/ aA/_B/A/G/ |
[V:2]C4 FF |
[V:3]E,2>F,2 z2 |
[V:4]G2z4 |
[V:1]A/F/_B/F/c/F/ d2z |
[V:2]fe_e dc_B |
[V:3]F,G,A, _B,DE |
[V:4]z6 |
[V:1]zFF2 G/F/E- |
[V:2]A2d G2c |
[V:3]F2z4 |
[V:4]z6 |
[V:1]EDC B,3 |
[V:2]Fff fg/f/e/d/ |
[V:3]z6 |
[V:4]z6 |
[V:1]C2z4 |
[V:2]e2z2 GG |
[V:3]zE,E, E^D=D |
[V:4]zC,C, CB,_B, |
[V:1]z4 AA |
[V:2]g^f=f e2a |
[V:3]^C2D2 CC |
[V:4]A,2_B, G,A,A, |
[V:1]a^g=g f3- |
[V:2]d4 FF |
[V:3]D4 DD |
[V:4]_B,6- |
[V:1]f4 d'd' |
[V:2]fe_e d3- |
[V:3]d^c=c _BAG |
[V:4]B,6- |
[V:1]d_e=e fga |
[V:2]dDD d^c=c |
[V:3]^G2>A2 E^F |
[V:4]B,3 A,3 |
[V:1]_b2e a2d |
[V:2]_BAG F2B |
[V:3]G2^C D2F |
[V:4]A,,6- |
[V:1]gGG2 A/G/F |
[V:2]EEE2 F/E/D |
[V:3]E2D ^C2D |
[V:4]A,,6 |
[V:1]z6 |
[V:2]_e_EE2 F/E/D |
[V:3]C2_B, A,2B, |
[V:4]A,2G, ^F,2G, |
[V:1]zgg G_A=A |
[V:2]^C6 |
[V:3]_B,6 |
[V:4]_E,6 |
[V:1]_Bgg G_A=A |
[V:2]D6 |
[V:3]G,6 |
[V:4]D,6 |
[V:1]_Bgg G_A=A |
[V:2]G6- |
[V:3]E,6- |
[V:4]^C,6 |
[V:1]_Bgg geB |
[V:2]GEE2 FG- |
[V:3]E,6 |
[V:4]C,6 |
[V:1]AfA GeG |
[V:2]GFF2 EE- |
[V:3]F,3 A,3 |
[V:4]C,3 ^C,3 |
[V:1]FdF EcE |
[V:2]EDD2 CC |
[V:3]A,2D G,2z |
[V:4]D,2B,, C,2C,, |
[V:1]DAA AA,C |
[V:2]C6 |
[V:3]A,6 |
[V:4]F,,3 ^F,,3 |
[V:1]B,GG g^f=f |
[V:2]B,2z4 |
[V:3]G,2z G,A,B, |
[V:4]G,,6- |
[V:1]e2a d2g |
[V:2]zCC cB_B |
[V:3]CDE FGE |
[V:4]G,,6- |
[V:1]cf/e/f B2e |
[V:2]A4 GE |
[V:3]F2D GG,G, |
[V:4]G,,6- |
[V:1]A2d Gc/B/c |
[V:2]CDB, C3 |
[V:3]G^F=F E3 |
[V:4]G,,6- |
[V:1]^F6 |
[V:2]CB,C CB,A, |
[V:3]_EDE EDC |
[V:4]G,,6- |
[V:1]G2z4 |
[V:2]B,2z4 |
[V:3]D2z4 |
[V:4]G,,G,G, G,,_A,,=A,, |
[V:1]z6 |
[V:2]z6 |
[V:3]zG,G, G^F=F |
[V:4]_B,,3 =B,,3 |
[V:1]z6 |
[V:2]z6 |
[V:3]E2z4 |
[V:4]C,A,A, A,,_B,,=B,, |
[V:1]z6 |
[V:2]z6 |
[V:3]zA,A, A^G=G |
[V:4]C,3 ^C,3 |
[V:1]z6 |
[V:2]z6 |
[V:3]F2^F GF=F |
[V:4]D,^C,=C, B,,3 |
[V:1]zgg G_A=A |
[V:2]z6 |
[V:3]E2z4 |
[V:4]C,2z4 |
[V:1]_B3 =B3 |
[V:2]zG,G, G^F=F |
[V:3]z6 |
[V:4]z6 |
[V:1]caa A_B=B |
[V:2]E2z4 |
[V:3]z6 |
[V:4]z6 |
[V:1]c3 ^c3 |
[V:2]zA,A, A^G=G |
[V:3]z6 |
[V:4]z6 |
[V:1]d^c=c B3 |
[V:2]^F2>G2 F=F |
[V:3]z6 |
[V:4]z6 |
[V:1]cde f/g/a/g/f/e/ |
[V:2]EFG A2z |
[V:3]G2C CFz |
[V:4]C,B,,_B,, A,,2z |
[V:1]de^f g/a/b/a/g/f/ |
[V:2]^FGA B2z |
[V:3]A2D DGz |
[V:4]D,^C,=C, B,,2z |
[V:1]e^f^g a/b/c'/b/a/=g/ |
[V:2]^GAB c2z |
[V:3]B2E EAA |
[V:4]E,^D,=D, C,C,,C,, |
[V:1]fFF d/e/f/e/d/c/ |
[V:2]f/g/a/g/f/e/ dDD |
[V:3]A2>A,2 A/G/F/E/ |
[V:4]D,D,,D,, F,F,,F,, |
[V:1]BB,B, d'/c'/b/a/g/f/ |
[V:2]B/c/d/c/B/A/ GG,G, |
[V:3]D4 d/c/B/A/ |
[V:4]G,G,,G,, B,B,,B,, |
[V:1]eEE c/d/e/d/c/B/ |
[V:2]e/f/g/f/e/d/ cCC |
[V:3]G2>G,2 G/F/E/D/ |
[V:4]CC,C, E,E,,E,, |
[V:1]AA,A, c'/b/a/g/f/e/ |
[V:2]A/B/c/B/A/G/ Fff |
[V:3]C4 c/B/A/G/ |
[V:4]F,F,,F,, A,A,,A,, |
[V:1]dDD B/c/d/c/B/A/ |
[V:2]d/e/f/e/d/c/ BB,B, |
[V:3]F2>F,2 F/E/D/C/ |
[V:4]B,B,,B,, D,D,,D,, |
[V:1]GG,G, b/a/g/f/e/d/ |
[V:2]G/A/B/A/G/F/ Eee |
[V:3]B,4 B/A/G/F/ |
[V:4]E,E,,E,, G,G,,G,, |
[V:1]cCC A/B/c/B/A/G/ |
[V:2]c/d/e/d/c/B/ AA,A, |
[V:3]E2>E,2 E/D/C/B,/ |
[V:4]A,A,,A,, C,C,,C,, |
[V:1]Fff a/g/f/e/d/c/ |
[V:2]F/G/A/G/F/E/ Ddd |
[V:3]A,4 A/G/F/E/ |
[V:4]D,D,,D,, F,F,,F,, |
[V:1]B/c/d/c/B/A/ G/A/B/A/G/F/ |
[V:2]d2z4 |
[V:3]D2>D,2 D/C/B,/A,/ |
[V:4]G,G,,G,, B,B,,B,, |
[V:1]E2z c/d/e/d/c/B/ |
[V:2]E/F/G/F/E/D/ C2z |
[V:3]G,2z A,/B,/C/B,/A,/G,/ |
[V:4]C,/D,/E,/D,/C,/B,,/ A,,2z |
[V:1]A2z d/e/f/e/d/c/ |
[V:2]F/G/A/G/F/E/ D2z |
[V:3]F,2z B,/C/D/C/B,/A,/ |
[V:4]D,/E,/F,/E,/D,/C,/ B,,2z |
[V:1]B2z e/f/g/f/e/d/ |
[V:2]G/A/B/A/G/F/ E2z |
[V:3]G,2z C/D/E/D/C/B,/ |
[V:4]E,/F,/G,/F,/E,/D,/ C,2z |
[V:1]c2z f/g/a/g/f/e/ |
[V:2]A/B/c/B/A/G/ F2z |
[V:3]A,2z D/E/F/E/D/C/ |
[V:4]F,/G,/A,/G,/F,/E,/ D,2z |
[V:1]d/e/f/e/d/c/ B/c/d/c/B/A/ |
[V:2]d/e/f/e/d/c/ B/c/d/c/B/A/ |
[V:3]B,2z B/c/d/c/B/A/ |
[V:4]D/E/F/E/D/C/ B,/C/D/C/B,/A,/ |
[V:1]Ggg G_A=A |
[V:2]G2z4 |
[V:3]G2z4 |
[V:4][G,6-G,,6] |
[V:1]_B3 =B3 |
[V:2]zG,G, G^F=F |
[V:3]z2>D,2 DD |
[V:4][G,6G,,6-] |
[V:1]cc'c' c_d=d |
[V:2]E2z4 |
[V:3]E2z4 |
[V:4][G,6G,,6-] |
[V:1]_e3 =e3 |
[V:2]zCC cB_B |
[V:3]z2>G,2 GG |
[V:4][G,6G,,6-] |
[V:1]f3 ^f3 |
[V:2]ADD d^c=c |
[V:3]F,FF A,AA |
[V:4][G,6G,,6-] |
[V:1]gB/c/B/A/ G2z |
[V:2]B2>G2 AB |
[V:3]G,GG B,/G,/C/G,/D/G,/ |
[V:4][G,G,,]G,,G,, G,^F,=F, |
[V:1]z4 ff- |
[V:2]cde fdc |
[V:3]E2z4 |
[V:4]E,C,B,, A,,2D, |
[V:1]fg/f/e2 dc |
[V:2]B2c A3 |
[V:3]zDE FB,C |
[V:4]G,,2C, F,,F,F,- |
[V:1]B2c FFF- |
[V:2]G2>D2 DD |
[V:3]D2C A,3 |
[V:4]F,G,/F,/E,2 D,C, |
[V:1]FG/F/E DFB, |
[V:2]D2C A,2B, |
[V:3]G,3 F,2D, |
[V:4]B,,2C, F,,D,,G,, |
[V:1]Ccc C_D=D |
[V:2]Ccc C_D=D |
[V:3]E,cc C_D=D |
[V:4]C,,CC C,_D,=D, |
[V:1]_Ecc DE=E |
[V:2]_Ecc DE=E |
[V:3]_Ecc DE=E |
[V:4]_E,CC D,E,=E, |
[V:1]Fcc EF^F |
[V:2]Fcc EF^F |
[V:3]Fcc EF^F |
[V:4]F,CC E,F,^F, |
[V:1]GA/G/A/B/ cd/c/d/e/ |
[V:2]GA/G/A/B/ cd/c/d/e/ |
[V:3]GA/G/A/B/ cd/c/d/e/ |
[V:4]G,A,/G,/A,/B,/ CD/C/D/E/ |
[V:1]fdB cAE |
[V:2]fdB cAE |
[V:3]fdB cAE |
[V:4]FDB, CA,E, |
[V:1]F2z [G,2B2D2]z |
[V:2]F2z [B2G,2D2]z |
[V:3]F2z [F2G,2]z |
[V:4]F,2z [G,,2G,2]z |
[V:1][c2E2G,2]z4 |]
[V:2][c2G,2E2]z4 |]
[V:3][G,2C,2E2]z4 |]
[V:4][C3G,,3E,3C,,3] z3 |]

